assets/icons/24px/outline/document-code-24px.svg

<svg width="24" height="24" viewBox="0 0 24 24" fill="none" xmlns="http://www.w3.org/2000/svg">
<path d="M17.6759 6.30827L17.0069 7.05157L17.6759 6.30827ZM18.827 7.57705L19.7405 7.17021L18.827 7.57705ZM13.9491 3.13276L13.5908 4.06638L13.9491 3.13276ZM18.4142 20.4142L17.7071 19.7071L18.4142 20.4142ZM5.58579 20.4142L6.29289 19.7071L5.58579 20.4142ZM6 17V7H4V17H6ZM15 20H9V22H15V20ZM9 4H12.4651V2H9V4ZM18 9.28145V17H20V9.28145H18ZM14.472 4.77012L17.0069 7.05157L18.3448 5.56498L15.8099 3.28353L14.472 4.77012ZM20 9.28145C20 8.49248 20.0202 7.79821 19.7405 7.17021L17.9135 7.98389C17.9798 8.13278 18 8.31582 18 9.28145H20ZM17.0069 7.05157C17.7246 7.69754 17.8472 7.83499 17.9135 7.98389L19.7405 7.17021C19.4608 6.54221 18.9313 6.09277 18.3448 5.56498L17.0069 7.05157ZM12.4651 4C13.2988 4 13.4579 4.01538 13.5908 4.06638L14.3073 2.19914C13.7483 1.98462 13.1486 2 12.4651 2V4ZM15.8099 3.28353C15.3018 2.82623 14.8664 2.41366 14.3073 2.19914L13.5908 4.06638C13.7237 4.11738 13.8522 4.21234 14.472 4.77012L15.8099 3.28353ZM15 22C15.9145 22 16.701 22.0021 17.3278 21.9179C17.9833 21.8297 18.6117 21.631 19.1213 21.1213L17.7071 19.7071C17.631 19.7832 17.495 19.8774 17.0613 19.9357C16.5988 19.9979 15.9711 20 15 20V22ZM18 17C18 17.9711 17.9979 18.5988 17.9357 19.0613C17.8774 19.495 17.7832 19.631 17.7071 19.7071L19.1213 21.1213C19.631 20.6117 19.8297 19.9833 19.9179 19.3278C20.0021 18.701 20 17.9145 20 17H18ZM4 17C4 17.9145 3.99788 18.701 4.08214 19.3278C4.17027 19.9833 4.36902 20.6117 4.87868 21.1213L6.29289 19.7071C6.21677 19.631 6.12262 19.495 6.06431 19.0613C6.00212 18.5988 6 17.9711 6 17H4ZM9 20C8.02892 20 7.40121 19.9979 6.9387 19.9357C6.50496 19.8774 6.36902 19.7832 6.29289 19.7071L4.87868 21.1213C5.38834 21.631 6.01669 21.8297 6.67221 21.9179C7.29896 22.0021 8.08546 22 9 22V20ZM6 7C6 6.02892 6.00212 5.40121 6.06431 4.9387C6.12262 4.50496 6.21677 4.36902 6.29289 4.29289L4.87868 2.87868C4.36902 3.38834 4.17027 4.01669 4.08214 4.67221C3.99788 5.29896 4 6.08546 4 7H6ZM9 2C8.08546 2 7.29896 1.99788 6.67221 2.08214C6.01669 2.17027 5.38834 2.36902 4.87868 2.87868L6.29289 4.29289C6.36902 4.21677 6.50496 4.12262 6.9387 4.06431C7.40121 4.00212 8.02892 4 9 4V2Z" fill="white"/>
<path d="M13 3V5C13 6.88562 13 7.82843 13.5858 8.41421C14.1716 9 15.1144 9 17 9H19" stroke="white" stroke-width="2"/>
<path fill-rule="evenodd" clip-rule="evenodd" d="M8.24999 12.5C8.24999 11.8096 8.80963 11.25 9.49999 11.25H9.99999C10.4142 11.25 10.75 11.5858 10.75 12C10.75 12.4142 10.4142 12.75 9.99999 12.75H9.74999V13.7929C9.74999 14.1244 9.61829 14.4424 9.38387 14.6768L9.06065 15L9.38387 15.3232C9.61829 15.5576 9.74999 15.8756 9.74999 16.2071V17.25H9.99999C10.4142 17.25 10.75 17.5858 10.75 18C10.75 18.4142 10.4142 18.75 9.99999 18.75H9.49999C8.80963 18.75 8.24999 18.1904 8.24999 17.5V16.3107L7.82321 15.8839C7.33505 15.3957 7.33505 14.6043 7.82321 14.1161L8.24999 13.6893V12.5ZM13.25 12C13.25 11.5858 13.5858 11.25 14 11.25H14.5C15.1903 11.25 15.75 11.8096 15.75 12.5V13.6893L16.1768 14.1161C16.6649 14.6043 16.6649 15.3957 16.1768 15.8839L15.75 16.3107V17.5C15.75 18.1904 15.1903 18.75 14.5 18.75H14C13.5858 18.75 13.25 18.4142 13.25 18C13.25 17.5858 13.5858 17.25 14 17.25H14.25V16.2071C14.25 15.8756 14.3817 15.5576 14.6161 15.3232L14.9393 15L14.6161 14.6768C14.3817 14.4424 14.25 14.1244 14.25 13.7929V12.75H14C13.5858 12.75 13.25 12.4142 13.25 12Z" fill="white"/>
</svg>

<svg width="24" height="24" fill="none" xmlns="http://www.w3.org/2000/svg"><path d="M17.676 6.308l-.67.744.67-.744zm1.151 1.269l.913-.407-.913.407zm-4.878-4.444l-.358.933.358-.933zm4.465 17.281l-.707-.707.707.707zm-12.828 0l.707-.707-.707.707zM6 17V7H4v10h2zm9 3H9v2h6v-2zM9 4h3.465V2H9v2zm9 5.281V17h2V9.281h-2zm-3.528-4.51l2.535 2.28 1.338-1.486-2.535-2.281-1.338 1.486zM20 9.28c0-.789.02-1.483-.26-2.11l-1.826.813c.066.149.086.332.086 1.297h2zm-2.993-2.23c.718.647.84.784.906.933l1.828-.814c-.28-.628-.81-1.077-1.396-1.605l-1.338 1.487zM12.465 4c.834 0 .993.015 1.126.066l.716-1.867C13.748 1.985 13.15 2 12.465 2v2zm3.345-.716c-.508-.458-.944-.87-1.503-1.085l-.716 1.867c.133.051.261.146.881.704l1.338-1.486zM15 22c.915 0 1.701.002 2.328-.082.655-.088 1.284-.287 1.793-.797l-1.414-1.414c-.076.076-.212.17-.646.229-.462.062-1.09.064-2.061.064v2zm3-5c0 .971-.002 1.599-.064 2.061-.059.434-.153.57-.229.646l1.414 1.414c.51-.51.709-1.138.797-1.793C20.002 18.7 20 17.915 20 17h-2zM4 17c0 .915-.002 1.701.082 2.328.088.655.287 1.284.797 1.793l1.414-1.414c-.076-.076-.17-.212-.229-.646C6.002 18.6 6 17.971 6 17H4zm5 3c-.971 0-1.599-.002-2.061-.064-.434-.059-.57-.153-.646-.229l-1.414 1.414c.51.51 1.138.709 1.793.797C7.3 22.002 8.085 22 9 22v-2zM6 7c0-.971.002-1.599.064-2.061.059-.434.153-.57.229-.646L4.879 2.879c-.51.51-.709 1.138-.797 1.793C3.998 5.3 4 6.085 4 7h2zm3-5c-.915 0-1.701-.002-2.328.082-.655.088-1.284.287-1.793.797l1.414 1.414c.076-.076.212-.17.646-.229C7.4 4.002 8.029 4 9 4V2z" fill="#fff"/><path d="M13 3v2c0 1.886 0 2.828.586 3.414C14.172 9 15.114 9 17 9h2" stroke="#fff" stroke-width="2"/><path d="M10 12.75a.75.75 0 0 0 0-1.5v1.5zm0 6a.75.75 0 0 0 0-1.5v1.5zm4-7.5a.75.75 0 0 0 0 1.5v-1.5zm0 6a.75.75 0 0 0 0 1.5v-1.5zm1.146-1.396l-.53-.53.53.53zm.5-1.208l.53-.53-.53.53zm0 .708l-.53-.53.53.53zm-.5-1.208l-.53.53.53-.53zm-6.292 1.708l.53-.53-.53.53zm-.5-.5l-.53.53.53-.53zm.5-1.208l-.53-.53.53.53zM10 11.25h-.5v1.5h.5v-1.5zM8.25 12.5v1.293h1.5V12.5h-1.5zm.073 1.116l-.5.5 1.06 1.06.5-.5-1.06-1.06zm-.5 2.268l.5.5 1.06-1.06-.5-.5-1.06 1.06zm.427.323V17.5h1.5v-1.293h-1.5zM9.5 18.75h.5v-1.5h-.5v1.5zm4.5-6h.5v-1.5H14v1.5zm.25-.25v1.293h1.5V12.5h-1.5zm.366 2.177l.5.5 1.06-1.06-.5-.5-1.06 1.06zm.5.146l-.5.5 1.06 1.06.5-.5-1.06-1.06zm-.866 1.384V17.5h1.5v-1.293h-1.5zm.25 1.043H14v1.5h.5v-1.5zm.116-1.927a1.25 1.25 0 0 0-.366.884h1.5a.25.25 0 0 1-.073.177l-1.06-1.06zm.5-.146a.25.25 0 0 1 0-.354l1.06 1.06a1.25 1.25 0 0 0 0-1.767l-1.06 1.06zm-.866-1.384c0 .331.132.65.366.884l1.06-1.06a.25.25 0 0 1 .074.176h-1.5zm.25-1.043a.25.25 0 0 1-.25-.25h1.5c0-.69-.56-1.25-1.25-1.25v1.5zM8.25 17.5c0 .69.56 1.25 1.25 1.25v-1.5a.25.25 0 0 1 .25.25h-1.5zm.073-1.116a.25.25 0 0 1-.073-.177h1.5c0-.331-.132-.65-.366-.884l-1.06 1.06zm-.5-2.268a1.25 1.25 0 0 0 0 1.768l1.06-1.06a.25.25 0 0 1 0 .353l-1.06-1.06zm.427-.323a.25.25 0 0 1 .073-.177l1.06 1.06a1.25 1.25 0 0 0 .367-.883h-1.5zm6 3.707a.25.25 0 0 1 .25-.25v1.5c.69 0 1.25-.56 1.25-1.25h-1.5zM9.5 11.25c-.69 0-1.25.56-1.25 1.25h1.5a.25.25 0 0 1-.25.25v-1.5z" fill="#fff"/></svg>
